!!!OTL: Hush, Little Baby
!!!COM: unknown
!!!ODT: unknown
!!!YOR: The Folksong Fake Book
!!!YOY: 2000
!!!AST: Children's song
!!!YEC: Brian Luke, 2001
**kern	**harm
*k[f#c#]	*k[f#c#]
*M2/4	*M2/4
*D:	*D:
*>A	*>A
=1	=1
8A	I
16f#	.
16f#	.
8f#	.
8g	.
=2	=2
8f#	V7
16e	.
16e	.
4e	.
=3	=3
16A	.
16e	.
16e	.
16e	.
8e	.
16e	.
16f#	.
=4	=4
8e	I
8d	.
4d	.
=5	=5
8A	.
8f#	.
8f#	.
8g	.
=6	=6
8f#	V7
8e	.
4e	.
=7	=7
16A	.
16e	.
16e	.
16e	.
8e	.
16e	.
16f#	.
=8	=8
8e	I;
8d	.
4d	.
*-	*-
